images_sukapura_svg/cmd/lc_spacepara15.svg

<svg viewBox="0 0 24 24" xmlns="http://www.w3.org/2000/svg"><g fill="#0a84ff" stroke="#0070f5" stroke-linecap="round" stroke-linejoin="round" transform="matrix(0 1 -1 0 15 -.014242)"><path d="m5.5058594 2.4921875-4 4h2.9941406v.0078125.5 3c0 .277.223.5.5.5h1c.277 0 .5-.223.5-.5v-3-.4921875-.0078125l3.0058594-.00781z" transform="matrix(0 -1 1 0 .014242 15)"/><path d="m21.514263 9.4941406-4.000001 4.0000004v-2.994141h-.0078-.5-3c-.277 0-.5-.223-.5-.5v-1c0-.277.223-.5.5-.5h3 .492188.0078l.0078-3.0058594z"/></g><g fill="#69696e" transform="matrix(-1 0 0 1 0 -3)"><rect height="1" ry=".5" width="11" x="-22" y="17"/><rect height="1" ry=".5" width="11" x="-22" y="9"/><rect height="1" ry=".5" width="11" x="-22" y="13"/><rect height="1" ry=".5" width="11" x="-22" y="21"/></g></svg>

<?xml version="1.0" encoding="UTF-8" standalone="no"?>
<svg
   xmlns:dc="http://purl.org/dc/elements/1.1/"
   xmlns:cc="http://creativecommons.org/ns#"
   xmlns:rdf="http://www.w3.org/1999/02/22-rdf-syntax-ns#"
   xmlns:svg="http://www.w3.org/2000/svg"
   xmlns="http://www.w3.org/2000/svg"
   xmlns:sodipodi="http://sodipodi.sourceforge.net/DTD/sodipodi-0.dtd"
   xmlns:inkscape="http://www.inkscape.org/namespaces/inkscape"
   viewBox="0 0 24 24"
   version="1.1"
   id="svg24"
   sodipodi:docname="lc_spacepara15.svg"
   inkscape:version="0.92.3 (unknown)"
   inkscape:export-filename="/home/rizmut/Dokumen/Rizmut/Github/libreoffice-style-colibrex/images_colibrex/cmd/lc_spacepara15.png"
   inkscape:export-xdpi="96"
   inkscape:export-ydpi="96">
  <metadata
     id="metadata30">
    <rdf:RDF>
      <cc:Work
         rdf:about="">
        <dc:format>image/svg+xml</dc:format>
        <dc:type
           rdf:resource="http://purl.org/dc/dcmitype/StillImage" />
        <dc:title></dc:title>
      </cc:Work>
    </rdf:RDF>
  </metadata>
  <defs
     id="defs28" />
  <sodipodi:namedview
     pagecolor="#ffffff"
     bordercolor="#666666"
     borderopacity="1"
     objecttolerance="10"
     gridtolerance="10"
     guidetolerance="10"
     inkscape:pageopacity="0"
     inkscape:pageshadow="2"
     inkscape:window-width="1366"
     inkscape:window-height="706"
     id="namedview26"
     showgrid="true"
     inkscape:zoom="11.313709"
     inkscape:cx="5.7722338"
     inkscape:cy="5.3729948"
     inkscape:window-x="0"
     inkscape:window-y="0"
     inkscape:window-maximized="1"
     inkscape:current-layer="svg24">
    <inkscape:grid
       type="xygrid"
       id="grid840"
       spacingx="0.5"
       spacingy="0.5"
       empspacing="2" />
  </sodipodi:namedview>
  <g
     fill="none"
     stroke="#4d82b8"
     stroke-linecap="round"
     stroke-linejoin="round"
     transform="matrix(0 1 -1 0 15 -.014242)"
     id="g6">
    <path
       d="m 5.5058594,2.4921875 -4,4 H 4.5 V 6.5 7 l 0,3 c 0,0.277 0.223,0.5 0.5,0.5 h 1 c 0.277,0 0.5,-0.223 0.5,-0.5 l 0,-3 V 6.5078125 6.5 l 3.0058594,-0.00781 z"
       transform="rotate(-90,7.507121,7.492879)"
       id="path2"
       inkscape:connector-curvature="0"
       sodipodi:nodetypes="cccccssssccccc"
       style="fill:#0a84ff;fill-opacity:1;stroke:#0070f5;stroke-opacity:1" />
    <path
       style="fill:#0a84ff;fill-opacity:1;stroke:#0070f5;stroke-opacity:1"
       sodipodi:nodetypes="cccccssssccccc"
       inkscape:connector-curvature="0"
       id="path850"
       d="M 21.514263,9.4941406 17.514262,13.494141 V 10.5 h -0.0078 -0.5 -3 c -0.277,0 -0.5,-0.223 -0.5,-0.5 V 9 c 0,-0.277 0.223,-0.5 0.5,-0.5 h 3 0.492188 0.0078 l 0.0078,-3.0058594 z" />
  </g>
  <g
     fill="#808080"
     transform="matrix(-1 0 0 1 0 -3)"
     id="g16"
     style="fill:#69696e;fill-opacity:1">
    <rect
       height="1"
       ry=".5"
       width="11"
       x="-22"
       y="17"
       id="rect8"
       style="fill:#69696e;fill-opacity:1" />
    <rect
       height="1"
       ry=".5"
       width="11"
       x="-22"
       y="9"
       id="rect10"
       style="fill:#69696e;fill-opacity:1" />
    <rect
       height="1"
       ry=".5"
       width="11"
       x="-22"
       y="13"
       id="rect12"
       style="fill:#69696e;fill-opacity:1" />
    <rect
       height="1"
       ry=".5"
       width="11"
       x="-22"
       y="21"
       id="rect14"
       style="fill:#69696e;fill-opacity:1" />
  </g>
</svg>
